packages/symbols/svgs/duotone/file-pdf-duotone.svg

<svg width="24" height="24" viewBox="0 0 24 24" fill="none" xmlns="http://www.w3.org/2000/svg">
<path opacity="0.5" fill-rule="evenodd" clip-rule="evenodd" d="M2 0H3H15H15.4142L15.7071 0.292893L21.7071 6.29289L22 6.58579V7V23V24H21H3H2V23V1V0ZM4 2V22H20V8H15C14.4477 8 14 7.55228 14 7V2H4Z" fill="black"/>
<path fill-rule="evenodd" clip-rule="evenodd" d="M12.4971 13.4025C12.5407 13.2835 12.5836 13.1635 12.6255 13.0418C12.6968 12.7867 12.9978 11.6451 12.9978 10.7182C12.9993 9.89965 12.2534 9.23538 11.3336 9.23538C10.4137 9.23538 9.66786 9.89965 9.66786 10.7189C9.66786 10.7321 9.67601 11.9947 10.3565 13.4778C10.0067 14.3352 9.58233 15.196 9.09306 16.0432C8.02452 16.4909 7.14194 17.0276 6.46771 17.6405C6.15773 17.9256 6.00195 18.2933 6.00195 18.7352C6.00195 19.5523 6.74829 20.217 7.66567 20.217C8.20268 20.217 8.70885 19.9855 9.01912 19.5979C9.38319 19.1427 9.93303 18.4066 10.5342 17.4302C11.3198 17.1489 12.2188 16.9112 13.2132 16.7216C13.887 17.1458 14.6502 17.4873 15.4861 17.738C15.7112 17.8066 15.9535 17.8419 16.2036 17.8419C17.2109 17.8419 18 17.125 18 16.2096C18 15.3093 17.1776 14.5769 16.1668 14.5769H15.9825C15.8469 14.5824 14.9627 14.6274 13.7266 14.8145C13.2379 14.4122 12.8252 13.9428 12.4971 13.4025ZM11.3335 10.4222C11.5171 10.4222 11.6668 10.5554 11.6668 10.719C11.6668 11.3926 11.4624 12.2619 11.381 12.5834C11.0103 11.5825 11.0003 10.7942 11.0003 10.7189C11.0003 10.5551 11.1495 10.4222 11.3335 10.4222ZM7.93243 18.9071C7.76969 19.1147 7.33427 19.03 7.33427 18.6718C7.33427 18.5942 7.36554 18.5199 7.42024 18.4701C7.86874 18.0619 8.41171 17.7151 9.00391 17.4197C8.53408 18.141 8.13629 18.6546 7.93243 18.9071ZM11.4866 14.1775C11.2001 14.8503 10.8785 15.5109 10.523 16.157C11.2738 15.9179 12.0296 15.7363 12.7277 15.5933C12.2106 15.1456 11.8043 14.6611 11.4866 14.1775ZM15.9974 15.7673H16.1641C16.4395 15.7673 16.6638 15.9666 16.6638 16.2451C16.6638 16.4723 16.4562 16.6579 16.2004 16.6579C16.0995 16.6579 15.9986 16.6439 15.9094 16.6162C15.2964 16.433 14.7603 16.2035 14.2915 15.9435C15.2964 15.8027 15.9825 15.7673 15.9974 15.7673Z" fill="black"/>
</svg>

<svg width="24" height="24" viewBox="0 0 24 24" xmlns="http://www.w3.org/2000/svg"><path opacity=".5" fill-rule="evenodd" clip-rule="evenodd" d="M2 0h13.414l.293.293 6 6 .293.293V24H2V0Zm2 2v20h16V8h-5a1 1 0 0 1-1-1V2H4Z"/><path fill-rule="evenodd" clip-rule="evenodd" d="M12.497 13.402c.044-.118.087-.238.129-.36.07-.255.372-1.397.372-2.324.001-.818-.745-1.483-1.664-1.483-.92 0-1.666.665-1.666 1.484 0 .013.008 1.276.689 2.759-.35.857-.775 1.718-1.264 2.565-1.068.448-1.951.985-2.625 1.598-.31.285-.466.652-.466 1.094 0 .817.746 1.482 1.664 1.482.537 0 1.043-.232 1.353-.62.364-.454.914-1.19 1.515-2.167a18.005 18.005 0 0 1 2.68-.708 9.24 9.24 0 0 0 2.272 1.016c.225.069.467.104.718.104 1.007 0 1.796-.717 1.796-1.632 0-.9-.822-1.633-1.833-1.633h-.185c-.135.005-1.02.05-2.255.238a5.558 5.558 0 0 1-1.23-1.412Zm-1.163-2.98c.183 0 .333.133.333.297 0 .674-.205 1.543-.286 1.864-.37-1-.38-1.789-.38-1.864 0-.164.149-.297.333-.297Zm-3.402 8.485c-.162.208-.598.123-.598-.235 0-.078.032-.152.086-.202.449-.408.992-.755 1.584-1.05a18.33 18.33 0 0 1-1.072 1.487Zm3.555-4.73a21.928 21.928 0 0 1-.964 1.98c.75-.24 1.507-.42 2.205-.564a6.827 6.827 0 0 1-1.241-1.415Zm4.51 1.59h.167c.275 0 .5.2.5.478 0 .227-.208.413-.464.413a.996.996 0 0 1-.29-.042 8.112 8.112 0 0 1-1.619-.672 20.698 20.698 0 0 1 1.706-.177Z"/></svg>
